X: 351
T: Hawk Is A Mule
B: canberra pickers and fiddlers
B: tunes
M:2/2
L:1/16
Q: 1/2=180
K:G
V:1 
A,6B,2D2F2EF3/2-F3/16ED3/8-|D2E2F2F2B2F2[FA]2[F-B-]2|[FB]2d4B2A2F2EF3/2-F3/16ED3/8-|D2E2G2G2B2G2A2B2|
A4A,2B,2D2F2EF3/2-F3/16ED3/8-|D2E2F2F2B2F2A2B2-|B2d4B2A2F2EF3/2-F3/16ED3/8-|D2F2E2D2B,2D2[A,-D-]4|
[A,D]2A,4B,2D2F2EF3/2-F3/16ED3/8-|D2E2F2F2B2F2[FA]2[F-B-]2|[FB]2d4B2A2F2EF3/2-F3/16ED3/8-|D2E2G2G2B2G2A2B2|
A4A,2B,2D2F2EF3/2-F3/16ED3/8-|D2E2F2F2B2F2A2B2-|B2d4B2A2F2EF3/2-F3/16ED3/8-|D2F2E2D2B,2D2[A,-D-]4|
[A,D]4A,8A,2B,2-|B,4D8D2E2-|E4[A,F]6A2F2E2|D2E2G2G2B2G2A2B2|
A4F8A4-|A4A2B6d4-|d4f6a2f2e2|d2f2e2d2B2d2A4-|
A4A,8A,2B,2-|B,4D8D2E2-|E4[A,F]6A2F2E2|D2E2G2G2B2G2A2B2|
A4F8A4-|A4A2B6d4-|d4f6a2f2e2|d2f2e2d2B2d2A4-|A4||

% abcbook-tune_id 67ab61fb1339559b1e067d13
% abcbook-tune_composer_id 
% abcbook-link-0 https://www.youtube.com/watch?v=2hoMlSs2Fwc
% abcbook-link-title-0 Andrew Marlin - &quot;The Hawk Is a Mule&quot; | Fretboard Journal
% abcbook-link-start-at-0 9
% abcbook-boost 0
% abcbook-difficulty 0
% abcbook-tags old time tunes
% abcbook-tablature 
% abcbook-transpose 7
% abcbook-tuning GDAE
% abcbook-lastupdated 1739318024052
% abcbook-src-url 
% abcbook-soundfonts 
% abcbook-repeats 1
%%MIDI transpose 7


